contributed-vectors/_9292.svg

<svg xmlns="http://www.w3.org/2000/svg" id="svg16" version="1.1" viewBox="0 0 192 192"><defs id="defs4"><style id="style2">.a{fill:none;stroke:#b1b5bd;stroke-linecap:round;stroke-linejoin:round;isolation:isolate;opacity:.63}</style></defs><path id="path853" d="M96 20 20 96v66c0 5.54 4.46 10 10 10h66l76-76V30c0-5.54-4.46-10-10-10H96z" style="fill:#fff;stroke:none;stroke-width:1px;stroke-linecap:butt;stroke-linejoin:miter;stroke-opacity:1"/><path id="rect818" d="M30 20c-5.54 0-10 4.46-10 10v66h76V20H30z" style="opacity:1;vector-effect:none;fill:#56595b;fill-opacity:1;fill-rule:evenodd;paint-order:stroke fill markers"/><path id="rect818-8" d="M162 172c5.54 0 10-4.46 10-10V96H96v76z" style="opacity:1;vector-effect:none;fill:#56595b;fill-opacity:1;fill-rule:evenodd;paint-order:stroke fill markers"/><text xml:space="preserve" id="text873" x="43.398" y="75.676" style="font-style:normal;font-variant:normal;font-weight:400;font-stretch:normal;font-size:40px;line-height:1.25;font-family:Aleo;-inkscape-font-specification:Aleo;letter-spacing:0;word-spacing:0;fill:#fff;fill-opacity:1;stroke:none"><tspan id="tspan871" x="43.398" y="75.676" style="font-style:normal;font-variant:normal;font-weight:700;font-stretch:normal;font-family:Now;-inkscape-font-specification:&quot;Now Bold&quot;;fill:#fff">9</tspan></text><text xml:space="preserve" id="text877" x="122.646" y="75.685" style="font-style:normal;font-variant:normal;font-weight:400;font-stretch:normal;font-size:40px;line-height:1.25;font-family:Aleo;-inkscape-font-specification:Aleo;letter-spacing:0;word-spacing:0;fill:#56595b;fill-opacity:1;stroke:none"><tspan id="tspan875" x="122.646" y="75.685" style="font-style:normal;font-variant:normal;font-weight:700;font-stretch:normal;font-family:Now;-inkscape-font-specification:&quot;Now Bold&quot;;fill:#56595b">2</tspan></text><text xml:space="preserve" id="text873-0" x="43.398" y="146.724" style="font-style:normal;font-variant:normal;font-weight:400;font-stretch:normal;font-size:40px;line-height:1.25;font-family:Aleo;-inkscape-font-specification:Aleo;letter-spacing:0;word-spacing:0;fill:#56595b;fill-opacity:1;stroke:none"><tspan id="tspan871-4" x="43.398" y="146.724" style="font-style:normal;font-variant:normal;font-weight:700;font-stretch:normal;font-family:Now;-inkscape-font-specification:&quot;Now Bold&quot;;fill:#56595b">9</tspan></text><text xml:space="preserve" id="text877-5" x="122.646" y="146.765" style="font-style:normal;font-variant:normal;font-weight:400;font-stretch:normal;font-size:40px;line-height:1.25;font-family:Aleo;-inkscape-font-specification:Aleo;letter-spacing:0;word-spacing:0;fill:#fff;fill-opacity:1;stroke:none"><tspan id="tspan875-6" x="122.646" y="146.765" style="font-style:normal;font-variant:normal;font-weight:700;font-stretch:normal;font-family:Now;-inkscape-font-specification:&quot;Now Bold&quot;;fill:#fff">2</tspan></text></svg>

<?xml version="1.0" encoding="UTF-8" standalone="no"?>
<svg
   xmlns:dc="http://purl.org/dc/elements/1.1/"
   xmlns:cc="http://creativecommons.org/ns#"
   xmlns:rdf="http://www.w3.org/1999/02/22-rdf-syntax-ns#"
   xmlns:svg="http://www.w3.org/2000/svg"
   xmlns="http://www.w3.org/2000/svg"
   xmlns:sodipodi="http://sodipodi.sourceforge.net/DTD/sodipodi-0.dtd"
   xmlns:inkscape="http://www.inkscape.org/namespaces/inkscape"
   viewBox="0 0 192 192"
   version="1.1"
   id="svg16"
   sodipodi:docname="9292.svg"
   inkscape:version="0.92.4 (5da689c313, 2019-01-14)">
  <metadata
     id="metadata20">
    <rdf:RDF>
      <cc:Work
         rdf:about="">
        <dc:format>image/svg+xml</dc:format>
        <dc:type
           rdf:resource="http://purl.org/dc/dcmitype/StillImage" />
        <dc:title></dc:title>
      </cc:Work>
    </rdf:RDF>
  </metadata>
  <sodipodi:namedview
     pagecolor="#ffffff"
     bordercolor="#666666"
     borderopacity="1"
     objecttolerance="10"
     gridtolerance="10"
     guidetolerance="10"
     inkscape:pageopacity="0"
     inkscape:pageshadow="2"
     inkscape:window-width="1920"
     inkscape:window-height="1017"
     id="namedview18"
     showgrid="true"
     inkscape:zoom="4.9166667"
     inkscape:cx="131.21868"
     inkscape:cy="84.14352"
     inkscape:window-x="-8"
     inkscape:window-y="-8"
     inkscape:window-maximized="1"
     inkscape:current-layer="svg16">
    <inkscape:grid
       type="xygrid"
       id="grid827"
       spacingx="4"
       spacingy="4" />
  </sodipodi:namedview>
  <defs
     id="defs4">
    <style
       id="style2">.a{fill:none;stroke:#b1b5bd;stroke-linecap:round;stroke-linejoin:round;isolation:isolate;opacity:0.63;}</style>
  </defs>
  <path
     style="fill:#ffffff;stroke:none;stroke-width:1px;stroke-linecap:butt;stroke-linejoin:miter;stroke-opacity:1"
     d="M 96 20 L 20 96 L 20 162 C 20 167.54 24.46 172 30 172 L 96 172 L 172 96 L 172 30 C 172 24.46 167.54 20 162 20 L 96 20 z "
     id="path853" />
  <path
     style="opacity:1;vector-effect:none;fill:#56595b;fill-opacity:1;fill-rule:evenodd;paint-order:stroke fill markers"
     d="M 30 20 C 24.46 20 20 24.46 20 30 L 20 96 L 96 96 L 96 20 L 30 20 z "
     id="rect818" />
  <path
     inkscape:connector-curvature="0"
     style="opacity:1;vector-effect:none;fill:#56595b;fill-opacity:1;fill-rule:evenodd;paint-order:stroke fill markers"
     d="m 162,172 c 5.54,0 10,-4.46 10,-10 V 96 H 96 v 76 z"
     id="rect818-8" />
  <text
     xml:space="preserve"
     style="font-style:normal;font-variant:normal;font-weight:normal;font-stretch:normal;font-size:40px;line-height:1.25;font-family:Aleo;-inkscape-font-specification:Aleo;letter-spacing:0px;word-spacing:0px;fill:#ffffff;fill-opacity:1;stroke:none;"
     x="43.397697"
     y="75.676407"
     id="text873"><tspan
       sodipodi:role="line"
       id="tspan871"
       x="43.397697"
       y="75.676407"
       style="font-style:normal;font-variant:normal;font-weight:bold;font-stretch:normal;font-family:Now;-inkscape-font-specification:'Now Bold';fill:#ffffff;">9</tspan></text>
  <text
     xml:space="preserve"
     style="font-style:normal;font-variant:normal;font-weight:normal;font-stretch:normal;font-size:40px;line-height:1.25;font-family:Aleo;-inkscape-font-specification:Aleo;letter-spacing:0px;word-spacing:0px;fill:#56595b;fill-opacity:1;stroke:none;"
     x="122.64606"
     y="75.685448"
     id="text877"><tspan
       sodipodi:role="line"
       id="tspan875"
       x="122.64606"
       y="75.685448"
       style="font-style:normal;font-variant:normal;font-weight:bold;font-stretch:normal;font-family:Now;-inkscape-font-specification:'Now Bold';fill:#56595b;">2</tspan></text>
  <text
     xml:space="preserve"
     style="font-style:normal;font-variant:normal;font-weight:normal;font-stretch:normal;font-size:40px;line-height:1.25;font-family:Aleo;-inkscape-font-specification:Aleo;letter-spacing:0px;word-spacing:0px;fill:#56595b;fill-opacity:1;stroke:none;"
     x="43.397697"
     y="146.72359"
     id="text873-0"><tspan
       sodipodi:role="line"
       id="tspan871-4"
       x="43.397697"
       y="146.72359"
       style="font-style:normal;font-variant:normal;font-weight:bold;font-stretch:normal;font-family:Now;-inkscape-font-specification:'Now Bold';fill:#56595b;">9</tspan></text>
  <text
     xml:space="preserve"
     style="font-style:normal;font-variant:normal;font-weight:normal;font-stretch:normal;font-size:40px;line-height:1.25;font-family:Aleo;-inkscape-font-specification:Aleo;letter-spacing:0px;word-spacing:0px;fill:#ffffff;fill-opacity:1;stroke:none;"
     x="122.64606"
     y="146.76456"
     id="text877-5"><tspan
       sodipodi:role="line"
       id="tspan875-6"
       x="122.64606"
       y="146.76456"
       style="font-style:normal;font-variant:normal;font-weight:bold;font-stretch:normal;font-family:Now;-inkscape-font-specification:'Now Bold';fill:#ffffff;">2</tspan></text>
</svg>
